src/apps/scalable/qtdbusviewer.svg

<svg id="svg36" width="64" height="64" version="1.1" viewBox="0 0 16.933 16.933" xmlns="http://www.w3.org/2000/svg">
 <defs id="defs22">
  <filter id="filter1178" x="-.047999482" y="-.047999482" width="1.095999" height="1.095999" color-interpolation-filters="sRGB">
   <feGaussianBlur id="feGaussianBlur2" stdDeviation="0.30691668"/>
  </filter>
  <linearGradient id="linearGradient1340" x1="8.355" x2="8.3996" y1="16.007" y2=".79375" gradientUnits="userSpaceOnUse">
   <stop id="stop5" stop-color="#d8dee9" offset="0"/>
   <stop id="stop7" stop-color="#eceff4" offset="1"/>
  </linearGradient>
  <linearGradient id="linearGradient6743" x1="25.818" x2="34.428" y1="5.149" y2="13.925" gradientTransform="matrix(1.5637 0 0 1.4238 -39.721 -5.3257)" gradientUnits="userSpaceOnUse">
   <stop id="stop15" stop-color="#8fbcbb" offset="0"/>
   <stop id="stop17" stop-color="#a3be8c" offset=".68559"/>
   <stop id="stop19" stop-color="#a3be8c" offset="1"/>
  </linearGradient>
  <linearGradient id="b" x1="32" x2="32" y1="16.002001" y2="47.998001" gradientTransform="matrix(.26457812 0 0 .26457812 9.5630332 2.0981739)" gradientUnits="userSpaceOnUse">
   <stop id="stop344" stop-color="#fff" offset="0"/>
   <stop id="stop346" stop-color="#daffd8" offset="1"/>
  </linearGradient>
  <linearGradient id="b-3" x1="32" x2="32" y1="16.002001" y2="47.998001" gradientTransform="matrix(.26457812 0 0 .26457812 7.81e-5 3.2147374e-5)" gradientUnits="userSpaceOnUse">
   <stop id="stop344-6" stop-color="#fff" style="stop-color:#eceff4" offset="0"/>
   <stop id="stop346-7" stop-color="#daffd8" style="stop-color:#d8dee5;stop-opacity:.9137255" offset="1"/>
  </linearGradient>
  <filter id="filter6337" x="-.10799297" y="-.10800703" width="1.2159859" height="1.2160141" style="color-interpolation-filters:sRGB">
   <feGaussianBlur id="feGaussianBlur6339" stdDeviation="0.38096968"/>
  </filter>
 </defs>
 <g id="g30" stroke-linecap="round" stroke-linejoin="round">
  <rect id="rect24" transform="matrix(.99138 0 0 1 .072989 .0019055)" x=".79375" y=".90545" width="15.346" height="15.346" rx="3.0526" ry="3.0526" fill="#000000" filter="url(#filter1178)" opacity=".15" stroke-width="1.2489" style="mix-blend-mode:normal"/>
  <rect id="rect26" x=".92604" y=".92604" width="15.081" height="15.081" rx="3" ry="3" fill="url(#linearGradient1340)" stroke-width="1.2274"/>
  <rect id="rect28" x=".01215" y=".0060174" width="16.924" height="16.927" fill="none" opacity=".15" stroke-width="1.052"/>
 </g>
 <path id="path32" d="m3.9264 0.92603c-1.662 0-3.0003 1.3383-3.0003 3.0003v9.0809c0 1.662 1.3383 2.9998 3.0003 2.9998h9.0809c1.662 0 2.9998-1.3378 2.9998-2.9998v-9.0809c0-1.662-1.3378-3.0003-2.9998-3.0003z" fill="url(#linearGradient6743)" stroke-width=".26458"/>
 <path id="path1497" d="m5.503325 6.3499054-3.3866 2.1166249 3.3866 2.1166247v-1.2699752h5.92655v1.2699752l3.3866-2.1166247-3.3866-2.1166249v1.2699749h-5.92655" opacity=".15" style="fill:#2e3440;stroke-width:.264578"/>
 <path id="path362-5" d="m6.772749 4.2338111c-0.854323 0-1.490898 0.3058523-1.911048 0.9178215-0.419092 0.6061484-0.628373 1.4834895-0.628373 2.6328168 0 1.1739332 0.20981 2.0652966 0.628373 2.6825576 0.292094 0.42994 0.684464 0.70907 1.175256 0.837655 0 0 0.09895-4e-3 0.107419 0.09551 0.16933 1.298021 1.02815 1.299079 2.00656 1.299079 0 0 0.126469 2.65e-4 0.126469-0.118266v-0.715155c0-0.119854-0.126469-0.119854-0.126469-0.119854-0.489469 0-0.616467 0.03069-0.745581-0.432585a2.2465328 2.2465328 0 0 0 0.464335-0.159541 2.0420139 2.0420139 0 0 0 0.79638-0.693459c0.210869-0.305853 0.365118-0.683406 0.465657-1.132395 0.104773-0.4479306 0.155572-0.9622704 0.155572-1.5435486 0-1.1614979-0.212191-2.0443951-0.63922-2.645252-0.425971-0.6032381-1.052757-0.9053863-1.87533-0.9053863zm-0.0071 0.5788969v0.00265c0.180442 0 0.315642 0.059001 0.431263 0.1833526 0.06747 0.070113 0.126997 0.1613927 0.183617 0.2717218 0.03043 0.080167 0.06191 0.1666842 0.08519 0.2645781 0.06747 0.2629906 0.114562 0.5810135 0.142078 0.960154 0.02752 0.3788758 0.03836 0.8090799 0.03836 1.2898183 0 0.4836488-0.01058 0.9186152-0.03836 1.3033118-0.02752 0.3828444-0.0762 0.7053654-0.142078 0.9754994a2.3864946 2.3864946 0 0 1-0.08519 0.277014c-0.0071 0.0095-0.0093 0.02222-0.01508 0.03307-0.05212 0.09631-0.106361 0.179119-0.168272 0.244999-0.114298 0.129644-0.252407 0.190232-0.431527 0.190232-0.177796 0-0.3167-0.06085-0.429939-0.190496-0.112975-0.132287-0.205048-0.323049-0.272516-0.580483-0.0672-0.261933-0.114562-0.580749-0.142078-0.9583022a18.933739 18.933739 0 0 1-0.04392-1.2964328c0-0.4778281 0.01508-0.9037988 0.04392-1.2784414 0.02752-0.3735843 0.07488-0.6889615 0.142078-0.9424273 0.06747-0.2537304 0.160864-0.4426392 0.272516-0.5664618 0.11271-0.1227642 0.250555-0.1833526 0.429939-0.1833526zm3.913111 0.4868237c-0.378612 1.4300448-0.126998 1.4300448-0.884485 1.4300448v0.834744h0.505873v2.5037025h-5.29e-4s-0.126468 0.714626 0.505874 1.071542c0.650597 0.368028 1.869773 0.01799 1.894379 0v-0.833421s-0.275426 0.09393-0.477828 0.07593c-0.159805 0-0.289713-0.05821-0.386284-0.16933-0.09763-0.11324-0.147106-0.27966-0.147106-0.502699v-2.1457245h1.011218v-0.834744h-1.011262v-1.4300448h-1.00963z" fill="url(#b)" style="fill:#2e3440;filter:url(#filter6337);opacity:.3;stroke-width:.264578"/>
 <path id="path362" d="m6.772749 4.2338112c-0.854323 0-1.490898 0.3058523-1.911048 0.9178215-0.419092 0.6061484-0.628373 1.4834895-0.628373 2.6328168 0 1.1739332 0.20981 2.0652969 0.628373 2.6825575 0.292094 0.42994 0.684464 0.70907 1.175256 0.837655 0 0 0.09895-4e-3 0.107419 0.09551 0.16933 1.298021 1.02815 1.299079 2.00656 1.299079 0 0 0.126469 2.65e-4 0.126469-0.118266v-0.715155c0-0.119854-0.126469-0.119854-0.126469-0.119854-0.489469 0-0.616467 0.03069-0.745581-0.432585a2.2465328 2.2465328 0 0 0 0.464335-0.159541 2.0420139 2.0420139 0 0 0 0.79638-0.693459c0.210869-0.305853 0.365118-0.6834056 0.465657-1.1323947 0.104773-0.4479308 0.155572-0.9622706 0.155572-1.5435488 0-1.1614979-0.212191-2.0443951-0.63922-2.645252-0.425971-0.6032381-1.052757-0.9053863-1.87533-0.9053863zm-0.0071 0.5788969v0.00265c0.180442 0 0.315642 0.059001 0.431263 0.1833526 0.06747 0.070113 0.126997 0.1613927 0.183617 0.2717218 0.03043 0.080167 0.06191 0.1666842 0.08519 0.2645781 0.06747 0.2629906 0.114562 0.5810135 0.142078 0.960154 0.02752 0.3788758 0.03836 0.8090799 0.03836 1.2898183 0 0.4836488-0.01058 0.9186152-0.03836 1.3033118-0.02752 0.3828446-0.0762 0.7053653-0.142078 0.9754993a2.3864946 2.3864946 0 0 1-0.08519 0.277014c-0.0071 0.0095-0.0093 0.02222-0.01508 0.03307-0.05212 0.09631-0.106361 0.179119-0.168272 0.244999-0.114298 0.129644-0.252407 0.190232-0.431527 0.190232-0.177796 0-0.3167-0.06085-0.429939-0.190496-0.112975-0.132287-0.205048-0.323049-0.272516-0.580483-0.0672-0.2619325-0.114562-0.5807491-0.142078-0.9583021a18.933739 18.933739 0 0 1-0.04392-1.2964328c0-0.4778281 0.01508-0.9037988 0.04392-1.2784414 0.02752-0.3735843 0.07488-0.6889615 0.142078-0.9424273 0.06747-0.2537304 0.160864-0.4426392 0.272516-0.5664618 0.11271-0.1227642 0.250555-0.1833526 0.429939-0.1833526zm3.913111 0.4868237c-0.378612 1.4300448-0.126998 1.4300448-0.884485 1.4300448v0.834744h0.505873v2.5037024h-5.29e-4s-0.126468 0.714626 0.505874 1.071542c0.650597 0.368028 1.869773 0.01799 1.894379 0v-0.833421s-0.275426 0.09393-0.477828 0.07593c-0.159805 0-0.289713-0.05821-0.386284-0.16933-0.09763-0.11324-0.147106-0.2796594-0.147106-0.5026988v-2.1457246h1.011218v-0.834744h-1.011262v-1.4300448h-1.00963z" fill="url(#b)" style="fill:url(#b-3);stroke-width:.264578"/>
</svg>

<?xml version="1.0" encoding="UTF-8" standalone="no"?>
<svg
   width="64"
   height="64"
   version="1.1"
   viewBox="0 0 16.933 16.933"
   id="svg36"
   xmlns="http://www.w3.org/2000/svg"
   xmlns:svg="http://www.w3.org/2000/svg">
  <defs
     id="defs22">
    <filter
       id="filter1178"
       x="-0.047999482"
       y="-0.047999482"
       width="1.095999"
       height="1.095999"
       color-interpolation-filters="sRGB">
      <feGaussianBlur
         stdDeviation="0.30691668"
         id="feGaussianBlur2" />
    </filter>
    <linearGradient
       id="linearGradient1340"
       x1="8.355"
       x2="8.3996"
       y1="16.007"
       y2=".79375"
       gradientUnits="userSpaceOnUse">
      <stop
         stop-color="#d8dee9"
         offset="0"
         id="stop5" />
      <stop
         stop-color="#eceff4"
         offset="1"
         id="stop7" />
    </linearGradient>
    <linearGradient
       id="linearGradient6479"
       x1="30.29"
       x2="31.529"
       y1="10.045"
       y2="12.645"
       gradientTransform="matrix(1.9356 0 0 1.8448 -51.187 -12.848)"
       gradientUnits="userSpaceOnUse">
      <stop
         stop-color="#2e3440"
         offset="0"
         id="stop10" />
      <stop
         stop-color="#4c566a"
         offset="1"
         id="stop12" />
    </linearGradient>
    <linearGradient
       id="linearGradient6743"
       x1="25.818"
       x2="34.428"
       y1="5.149"
       y2="13.925"
       gradientTransform="matrix(1.5637 0 0 1.4238 -39.721 -5.3257)"
       gradientUnits="userSpaceOnUse">
      <stop
         stop-color="#8fbcbb"
         offset="0"
         id="stop15" />
      <stop
         stop-color="#a3be8c"
         offset=".68559"
         id="stop17" />
      <stop
         stop-color="#a3be8c"
         offset="1"
         id="stop19" />
    </linearGradient>
    <linearGradient
       id="b"
       x1="32"
       x2="32"
       y1="16.002001"
       y2="47.998001"
       gradientUnits="userSpaceOnUse"
       gradientTransform="matrix(0.26457812,0,0,0.26457812,9.5630332,2.0981739)">
      <stop
         stop-color="#fff"
         offset="0"
         id="stop344" />
      <stop
         stop-color="#daffd8"
         offset="1"
         id="stop346" />
    </linearGradient>
    <linearGradient
       id="b-3"
       x1="32"
       x2="32"
       y1="16.002001"
       y2="47.998001"
       gradientUnits="userSpaceOnUse"
       gradientTransform="matrix(0.26457812,0,0,0.26457812,7.81e-5,3.2147374e-5)">
      <stop
         stop-color="#fff"
         offset="0"
         id="stop344-6"
         style="stop-color:#eceff4;stop-opacity:1;" />
      <stop
         stop-color="#daffd8"
         offset="1"
         id="stop346-7"
         style="stop-color:#d8dee5;stop-opacity:0.9137255;" />
    </linearGradient>
    <filter
       style="color-interpolation-filters:sRGB"
       id="filter6337"
       x="-0.10799297"
       y="-0.10800703"
       width="1.2159859"
       height="1.2160141">
      <feGaussianBlur
         stdDeviation="0.38096968"
         id="feGaussianBlur6339" />
    </filter>
  </defs>
  <g
     stroke-linecap="round"
     stroke-linejoin="round"
     id="g30">
    <rect
       transform="matrix(.99138 0 0 1 .072989 .0019055)"
       x=".79375"
       y=".90545"
       width="15.346"
       height="15.346"
       rx="3.0526"
       ry="3.0526"
       fill="#000000"
       filter="url(#filter1178)"
       opacity=".15"
       stroke-width="1.2489"
       style="mix-blend-mode:normal"
       id="rect24" />
    <rect
       x=".92604"
       y=".92604"
       width="15.081"
       height="15.081"
       rx="3"
       ry="3"
       fill="url(#linearGradient1340)"
       stroke-width="1.2274"
       id="rect26" />
    <rect
       x=".01215"
       y=".0060174"
       width="16.924"
       height="16.927"
       fill="none"
       opacity=".15"
       stroke-width="1.052"
       id="rect28" />
  </g>
  <path
     d="m3.9264 0.92603c-1.662 0-3.0003 1.3383-3.0003 3.0003v9.0809c0 1.662 1.3383 2.9998 3.0003 2.9998h9.0809c1.662 0 2.9998-1.3378 2.9998-2.9998v-9.0809c0-1.662-1.3378-3.0003-2.9998-3.0003z"
     fill="url(#linearGradient6743)"
     stroke-width=".26458"
     id="path32" />
  <path
     d="m 5.503325,6.3499054 -3.3866,2.1166249 3.3866,2.1166247 V 9.3131798 h 5.92655 v 1.2699752 l 3.3866,-2.1166247 -3.3866,-2.1166249 v 1.2699749 h -5.92655"
     opacity="0.15"
     id="path1497"
     style="stroke-width:0.264578;fill:#2e3440;fill-opacity:1" />
  <path
     d="m 6.772749,4.2338111 c -0.854323,0 -1.490898,0.3058523 -1.911048,0.9178215 -0.419092,0.6061484 -0.628373,1.4834895 -0.628373,2.6328168 0,1.1739332 0.20981,2.0652966 0.628373,2.6825576 0.292094,0.42994 0.684464,0.70907 1.175256,0.837655 0,0 0.09895,-0.004 0.107419,0.09551 0.16933,1.298021 1.02815,1.299079 2.00656,1.299079 0,0 0.126469,2.65e-4 0.126469,-0.118266 V 11.86583 c 0,-0.119854 -0.126469,-0.119854 -0.126469,-0.119854 -0.489469,0 -0.616467,0.03069 -0.745581,-0.432585 A 2.2465328,2.2465328 0 0 0 7.86969,11.15385 2.0420139,2.0420139 0 0 0 8.66607,10.460391 C 8.876939,10.154538 9.031188,9.776985 9.131727,9.327996 9.2365,8.8800654 9.287299,8.3657256 9.287299,7.7844474 9.287299,6.6229495 9.075108,5.7400523 8.648079,5.1391954 8.222108,4.5359573 7.595322,4.2338091 6.772749,4.2338091 Z m -0.0071,0.5788969 v 0.00265 c 0.180442,0 0.315642,0.059001 0.431263,0.1833526 0.06747,0.070113 0.126997,0.1613927 0.183617,0.2717218 0.03043,0.080167 0.06191,0.1666842 0.08519,0.2645781 0.06747,0.2629906 0.114562,0.5810135 0.142078,0.960154 0.02752,0.3788758 0.03836,0.8090799 0.03836,1.2898183 0,0.4836488 -0.01058,0.9186152 -0.03836,1.3033118 C 7.580277,9.471139 7.531597,9.79366 7.465719,10.063794 a 2.3864946,2.3864946 0 0 1 -0.08519,0.277014 c -0.0071,0.0095 -0.0093,0.02222 -0.01508,0.03307 -0.05212,0.09631 -0.106361,0.179119 -0.168272,0.244999 -0.114298,0.129644 -0.252407,0.190232 -0.431527,0.190232 -0.177796,0 -0.3167,-0.06085 -0.429939,-0.190496 C 6.222736,10.486326 6.130663,10.295564 6.063195,10.03813 5.995995,9.776197 5.948633,9.457381 5.921117,9.0798278 A 18.933739,18.933739 0 0 1 5.877197,7.783395 c 0,-0.4778281 0.01508,-0.9037988 0.04392,-1.2784414 C 5.948637,6.1313693 5.995997,5.8159921 6.063195,5.5625263 6.130665,5.3087959 6.224059,5.1198871 6.335711,4.9960645 6.448421,4.8733003 6.586266,4.8127119 6.76565,4.8127119 Z M 10.67876,5.2995317 C 10.300148,6.7295765 10.551762,6.7295765 9.794275,6.7295765 v 0.834744 h 0.505873 v 2.5037025 h -5.29e-4 c 0,0 -0.126468,0.714626 0.505874,1.071542 0.650597,0.368028 1.869773,0.01799 1.894379,0 v -0.833421 c 0,0 -0.275426,0.09393 -0.477828,0.07593 -0.159805,0 -0.289713,-0.05821 -0.386284,-0.16933 -0.09763,-0.11324 -0.147106,-0.27966 -0.147106,-0.502699 V 7.5643205 h 1.011218 V 6.7295765 H 11.68861 V 5.2995317 h -1.00963 z"
     fill="url(#b)"
     id="path362-5"
     style="display:inline;opacity:0.3;fill:#2e3440;fill-opacity:1;stroke-width:0.264578;filter:url(#filter6337)" />
  <path
     d="m 6.772749,4.2338112 c -0.854323,0 -1.490898,0.3058523 -1.911048,0.9178215 -0.419092,0.6061484 -0.628373,1.4834895 -0.628373,2.6328168 0,1.1739332 0.20981,2.0652969 0.628373,2.6825575 0.292094,0.42994 0.684464,0.70907 1.175256,0.837655 0,0 0.09895,-0.004 0.107419,0.09551 0.16933,1.298021 1.02815,1.299079 2.00656,1.299079 0,0 0.126469,2.65e-4 0.126469,-0.118266 V 11.86583 c 0,-0.119854 -0.126469,-0.119854 -0.126469,-0.119854 -0.489469,0 -0.616467,0.03069 -0.745581,-0.432585 A 2.2465328,2.2465328 0 0 0 7.86969,11.15385 2.0420139,2.0420139 0 0 0 8.66607,10.460391 C 8.876939,10.154538 9.031188,9.7769854 9.131727,9.3279963 9.2365,8.8800655 9.287299,8.3657257 9.287299,7.7844475 9.287299,6.6229496 9.075108,5.7400524 8.648079,5.1391955 8.222108,4.5359574 7.595322,4.2338092 6.772749,4.2338092 Z m -0.0071,0.5788969 v 0.00265 c 0.180442,0 0.315642,0.059001 0.431263,0.1833526 0.06747,0.070113 0.126997,0.1613927 0.183617,0.2717218 0.03043,0.080167 0.06191,0.1666842 0.08519,0.2645781 0.06747,0.2629906 0.114562,0.5810135 0.142078,0.960154 0.02752,0.3788758 0.03836,0.8090799 0.03836,1.2898183 0,0.4836488 -0.01058,0.9186152 -0.03836,1.3033118 -0.02752,0.3828446 -0.0762,0.7053653 -0.142078,0.9754993 a 2.3864946,2.3864946 0 0 1 -0.08519,0.277014 c -0.0071,0.0095 -0.0093,0.02222 -0.01508,0.03307 -0.05212,0.09631 -0.106361,0.179119 -0.168272,0.244999 -0.114298,0.129644 -0.252407,0.190232 -0.431527,0.190232 -0.177796,0 -0.3167,-0.06085 -0.429939,-0.190496 C 6.222736,10.486326 6.130663,10.295564 6.063195,10.03813 5.995995,9.7761975 5.948633,9.4573809 5.921117,9.0798279 A 18.933739,18.933739 0 0 1 5.877197,7.7833951 c 0,-0.4778281 0.01508,-0.9037988 0.04392,-1.2784414 C 5.948637,6.1313694 5.995997,5.8159922 6.063195,5.5625264 6.130665,5.308796 6.224059,5.1198872 6.335711,4.9960646 6.448421,4.8733004 6.586266,4.812712 6.76565,4.812712 Z M 10.67876,5.2995318 C 10.300148,6.7295766 10.551762,6.7295766 9.794275,6.7295766 v 0.834744 h 0.505873 v 2.5037024 h -5.29e-4 c 0,0 -0.126468,0.714626 0.505874,1.071542 0.650597,0.368028 1.869773,0.01799 1.894379,0 v -0.833421 c 0,0 -0.275426,0.09393 -0.477828,0.07593 -0.159805,0 -0.289713,-0.05821 -0.386284,-0.16933 -0.09763,-0.11324 -0.147106,-0.2796594 -0.147106,-0.5026988 V 7.5643206 h 1.011218 V 6.7295766 H 11.68861 V 5.2995318 h -1.00963 z"
     fill="url(#b)"
     id="path362"
     style="fill:url(#b-3);stroke-width:0.264578" />
</svg>
